X:4603
L:1/8
M:2/2
K:D
"D" F2 AF GFED | F2 AF GFED |"A" E3 F GFED | EDEF GFED |"D" F2 AF GFED | F2 AF GFED | 
"A" cdef gece |1"D" df"A"ec"D" d4 :|2"D" df"A"ec"D" d2 ef |:"G" gBBB gBaB | gBBB gfed | 
"A" (3cBA eA fAed | cdef g2 ef |"G" gBBB gBaB | gBBB gfed |"A" cdef gece |1"D" df"A"ec"D" d2 ef :|2 
"D" df"A"ec"D" d4 |]

